!!!COM: Schiørring, Niels
!!!CDT: 1743-1798
!!!OPR@@DA: Choral-Bog
!!!ONM: 56
!!!OTL@@DA: Jeſus er mit Haab og Trøſt
**kern	**fb	**kern	**kern	**kern	**kern	**kern	**kern	**kern
*part6	*part6	*part6	*part5	*part5	*part4	*part3	*part2	*part1
*staff8	*	*staff7	*staff6	*staff5	*staff4	*staff3	*staff2	*staff1
*clefF4	*	*clefC1	*clefF4	*clefC1	*clefF4	*clefC4	*clefC3	*clefC1
*	*	*	*	*	*	*Trd0c0	*	*
*k[]	*	*k[]	*k[]	*k[]	*k[]	*k[]	*k[]	*k[]
*M4/4	*	*M4/4	*M4/4	*M4/4	*M4/4	*M4/4	*M4/4	*M4/4
*met(c)	*	*met(c)	*met(c)	*met(c)	*met(c)	*met(c)	*met(c)	*met(c)
=1	=1	=1	=1	=1	=1	=1	=1	=1
*	*	*	*^	*^	*	*	*	*
1C	.	2g	1G	1C	2g	2e	2C	2g	2e	2g
.	.	2e	.	.	2e	2c	2C	2g	2c	2e
=2	=2	=2	=2	=2	=2	=2	=2	=2	=2	=2
2F	.	2a	2A	2F	2a	2c	2F	2f	2c	2a
2D	6	2b	2ryy@	2D	2d	2f	2D	2f	2d	2b
=3	=3	=3	=3	=3	=3	=3	=3	=3	=3	=3
*	*	*	*	*	*	*^	*	*	*	*
2AA	.	2cc	2A	2AA	2cc	2a	2e\	2AA	2e	2e	2cc
2D	7 #	2cc	2A	2D	2cc	2f#X	2d\	2D	2f#X	2d	2cc
=4	=4	=4	=4	=4	=4	=4	=4	=4	=4	=4	=4
1GG	.	1b	1G	1GG	1b	1g	1d\	1GG	1g	1d	1b
=5	=5	=5	=5	=5	=5	=5	=5	=5	=5	=5	=5
2D	n	2a	2ryy@	2D	2d	2f	1r	2D	2f	2d	2a
2E	6	2cc	2G	2E	2cc	2e	.	2E	2g	2c	2cc
=6	=6	=6	=6	=6	=6	=6	=6	=6	=6	=6	=6
2BB	6	2g	2G	2BB	2g	2d	1r	2BB	2g	2d	2g
2C	.	2e	2G	2C	2e	2c	.	2C	2g	2c	2e
=7	=7	=7	=7	=7	=7	=7	=7	=7	=7	=7	=7
4AA	6	2f	4A	4AA	2f	4c	1r	(4AA	(4a	(4c	2f
4BB	5	.	2.G	4BB	.	4d	.	4BB)	4g)	4d)	.
2C	.	2e	.	2C	2e	[2c	.	2C	[2g	[2c	2e
=8	=8	=8	=8	=8	=8	=8	=8	=8	=8	=8	=8
1GG	4	1d	2G	1GG	1d	2c]	1r	1GG	(2g]	(2c]	1d
=9	=9	=9	=9	=9	=9	=9	=9	=9	=9	=9	=9
1C	3	1c	1E	1C	1c	1G	1r	1C	1e	1c	1c
=10:|!	=10:|!	=10:|!	=10:|!	=10:|!	=10:|!	=10:|!	=10:|!	=10:|!	=10:|!	=10:|!	=10:|!
1C	5	2e	2G	1C	2e	2c	1r	2C	2g	2c	2e
.	4	2f#X	2A	.	2f#X	2d	.	2C	2a	2d	2f#X
=11	=11	=11	=11	=11	=11	=11	=11	=11	=11	=11	=11
2BB	6	2g#X	2B	2BB	2g#X	2d	1r	2BB	2b	2d	2g#X
2AA	.	2a	2ryy@	2AA	2c	2e	.	2AA	2cc	2e	2a
=12	=12	=12	=12	=12	=12	=12	=12	=12	=12	=12	=12
2D	6 5	2a	1B	2D	2a	2f	1r	2D	2b	2f	2a
2E	#	2g#X	.	2E	2g#X	2e	.	2E	2b	2e	2g#X
=13	=13	=13	=13	=13	=13	=13	=13	=13	=13	=13	=13
1AA	.	1a	1A	1AA	1a	1e	1c\	1AA	1cc	1e	1a
*	*	*	*	*	*	*v	*v	*	*	*	*
=14	=14	=14	=14	=14	=14	=14	=14	=14	=14	=14
2D	6	2b	1ryy	2D	2d	2f	2D	2dd	2f	2b
2E	6	2cc	.	2E	2c	2g	2E	2cc	2g	2cc
=15	=15	=15	=15	=15	=15	=15	=15	=15	=15	=15
2BB	5	2dd	2ryy@	2BB	2f	2g	2BB	2ff	2g	2dd
*	*	*	*	*	*	*^	*	*	*	*
2C	.	2ee	[2c	2C	2ee	2g	2e\	2C	(4ee	2g	2ee
.	.	.	.	.	.	.	.	.	4cc)	.	.
=16	=16	=16	=16	=16	=16	=16	=16	=16	=16	=16	=16
2F	6 5	2dd	2c]	2F	2dd	2a	1r	2F	2cc	2a	2dd
2G	.	2dd	2B	2G	2dd	2g	.	2G	2b	2g	2dd
=17	=17	=17	=17	=17	=17	=17	=17	=17	=17	=17	=17
1C	.	1cc	1c	1C	1cc	1g	1e\	1C	1cc	1e	1cc
*	*	*	*v	*v	*	*	*	*	*	*	*
*	*	*	*	*v	*v	*v	*	*	*	*
==	==	==	==	==	==	==	==	==
*-	*-	*-	*-	*-	*-	*-	*-	*-
!!!system-decoration: {(s1,s2,s3,s4)}{(s5,s6)}{(s7,s8)}
!!!AGN: chorale
!!!EED: Derek Remeš
!!!EED2: Victor Phan
!!!END: 2023/11/28
!!!ENC: Wolfgang Drescher
!!!EEV: 2023/11/28
!!!title: @{ONM}. @{OTL}